image/icons/doc.svg

<svg width="33" height="43" viewBox="0 0 33 43" fill="none" xmlns="http://www.w3.org/2000/svg">
<path d="M4.01953 11.9858V40.4844C4.01953 41.4552 4.8065 42.2422 5.77734 42.2422H30.7383C31.7091 42.2422 32.4961 41.4552 32.4961 40.4844V6.03125C32.4961 5.06041 31.7091 4.27344 30.7383 4.27344H11.8857L4.17334 11.9858H4.01953Z" fill="#FFDF74"/>
<path d="M9.29297 40.4844V11.9858H9.44678L17.1592 4.27344H11.8857L4.17334 11.9858H4.01953V40.4844C4.01953 41.4552 4.8065 42.2422 5.77734 42.2422H11.0508C10.0799 42.2422 9.29297 41.4552 9.29297 40.4844Z" fill="#FFC34C"/>
<path d="M28.9805 8.47021V36.9688C28.9805 37.9396 28.1935 38.7266 27.2227 38.7266H2.26172C1.29088 38.7266 0.503906 37.9396 0.503906 36.9688V2.51562C0.503906 1.54479 1.29088 0.757812 2.26172 0.757812H21.1143L28.8267 8.47021H28.9805Z" fill="#FFF4C1"/>
<path d="M28.9805 8.47021L21.2681 0.757812L21.1286 7.75303C21.1207 8.14678 21.4378 8.47021 21.8315 8.47021H28.9805Z" fill="#FCF9DE"/>
<path d="M26.4756 30.7285H18.6094C18.2211 30.7285 17.9062 30.4137 17.9062 30.0254C17.9062 29.6371 18.2211 29.3223 18.6094 29.3223H26.4756C26.8639 29.3223 27.1787 29.6371 27.1787 30.0254C27.1787 30.4137 26.8639 30.7285 26.4756 30.7285Z" fill="#F87064"/>
<path d="M25.1792 36.3535H19.9058C19.5175 36.3535 19.2026 36.0387 19.2026 35.6504V33.1895C19.2026 32.8012 19.5175 32.4863 19.9058 32.4863H25.1792C25.5675 32.4863 25.8823 32.8012 25.8823 33.1895V35.6504C25.8823 36.0387 25.5675 36.3535 25.1792 36.3535Z" fill="#F87064"/>
<path d="M5.42578 36.9688V2.51562C5.42578 1.54479 6.21275 0.757812 7.18359 0.757812H2.26172C1.29088 0.757812 0.503906 1.54479 0.503906 2.51562V36.9688C0.503906 37.9396 1.29088 38.7266 2.26172 38.7266H7.18359C6.21275 38.7266 5.42578 37.9396 5.42578 36.9688Z" fill="#FCE575"/>
<path d="M15.9727 6.11914H3.00879C2.62049 6.11914 2.30566 5.80432 2.30566 5.41602C2.30566 5.02771 2.62049 4.71289 3.00879 4.71289H15.9727C16.361 4.71289 16.6758 5.02771 16.6758 5.41602C16.6758 5.80432 16.361 6.11914 15.9727 6.11914Z" fill="#F87064"/>
<path d="M18.7412 13.1504H3.00879C2.62049 13.1504 2.30566 12.8356 2.30566 12.4473C2.30566 12.059 2.62049 11.7441 3.00879 11.7441H18.7412C19.1295 11.7441 19.4443 12.059 19.4443 12.4473C19.4443 12.8356 19.1295 13.1504 18.7412 13.1504Z" fill="#F87064"/>
<path d="M26.5635 16.666H3.00879C2.62049 16.666 2.30566 16.3512 2.30566 15.9629C2.30566 15.5746 2.62049 15.2598 3.00879 15.2598H26.5635C26.9518 15.2598 27.2666 15.5746 27.2666 15.9629C27.2666 16.3512 26.9518 16.666 26.5635 16.666Z" fill="#F87064"/>
<path d="M26.5635 20.1816H3.00879C2.62049 20.1816 2.30566 19.8668 2.30566 19.4785C2.30566 19.0902 2.62049 18.7754 3.00879 18.7754H26.5635C26.9518 18.7754 27.2666 19.0902 27.2666 19.4785C27.2666 19.8668 26.9518 20.1816 26.5635 20.1816Z" fill="#F87064"/>
<path d="M26.5635 23.6973H3.00879C2.62049 23.6973 2.30566 23.3824 2.30566 22.9941C2.30566 22.6058 2.62049 22.291 3.00879 22.291H26.5635C26.9518 22.291 27.2666 22.6058 27.2666 22.9941C27.2666 23.3824 26.9518 23.6973 26.5635 23.6973Z" fill="#F87064"/>
<path d="M3.00879 22.291C2.62049 22.291 2.30566 22.6058 2.30566 22.9941C2.30566 23.3824 2.62049 23.6973 3.00879 23.6973H5.42578V22.291H3.00879Z" fill="#F87064"/>
<path d="M3.00879 18.7754C2.62049 18.7754 2.30566 19.0902 2.30566 19.4785C2.30566 19.8668 2.62049 20.1816 3.00879 20.1816H5.42578V18.7754H3.00879Z" fill="#F87064"/>
<path d="M3.00879 15.2598C2.62049 15.2598 2.30566 15.5746 2.30566 15.9629C2.30566 16.3512 2.62049 16.666 3.00879 16.666H5.42578V15.2598H3.00879Z" fill="#F87064"/>
<path d="M3.00879 11.7441C2.62049 11.7441 2.30566 12.059 2.30566 12.4473C2.30566 12.8356 2.62049 13.1504 3.00879 13.1504H5.42578V11.7441H3.00879Z" fill="#F87064"/>
<path d="M3.00879 4.71289C2.62049 4.71289 2.30566 5.02771 2.30566 5.41602C2.30566 5.80432 2.62049 6.11914 3.00879 6.11914H5.42578V4.71289H3.00879Z" fill="#F87064"/>
<path d="M7.85498 37.9355C8.72871 37.9355 9.43701 37.2272 9.43701 36.3535C9.43701 35.4798 8.72871 34.7715 7.85498 34.7715C6.98125 34.7715 6.27295 35.4798 6.27295 36.3535C6.27295 37.2272 6.98125 37.9355 7.85498 37.9355Z" fill="#FCE575"/>
<path d="M30.7383 38.753C30.447 38.753 30.2109 38.517 30.2109 38.2257V24.5731C30.2109 24.2819 30.447 24.0458 30.7383 24.0458C31.0296 24.0458 31.2656 24.2819 31.2656 24.5731V38.2257C31.2656 38.5171 31.0296 38.753 30.7383 38.753Z" fill="#FCE575"/>
</svg>

<svg xmlns="http://www.w3.org/2000/svg" fill="none" viewBox="0 0 33 43"><path fill="#FFDF74" d="M4.02 11.986v28.498c0 .971.787 1.758 1.757 1.758h24.961c.971 0 1.758-.787 1.758-1.758V6.031c0-.97-.787-1.758-1.758-1.758H11.886l-7.713 7.713H4.02z"/><path fill="#FFC34C" d="M9.293 40.484V11.986h.154l7.712-7.713h-5.273l-7.713 7.713H4.02v28.498c0 .971.787 1.758 1.757 1.758h5.274c-.971 0-1.758-.787-1.758-1.758z"/><path fill="#FFF4C1" d="M28.98 8.47V36.97c0 .97-.787 1.758-1.757 1.758H2.262c-.971 0-1.758-.787-1.758-1.758V2.516c0-.971.787-1.758 1.758-1.758h18.852l7.713 7.712h.153z"/><path fill="#FCF9DE" d="M28.98 8.47L21.268.758l-.14 6.995a.703.703 0 0 0 .703.717h7.15z"/><path fill="#F87064" d="M26.476 30.729h-7.867a.703.703 0 1 1 0-1.407h7.867a.703.703 0 0 1 0 1.407zM25.18 36.353h-5.274a.703.703 0 0 1-.703-.703v-2.46c0-.389.314-.704.703-.704h5.273c.389 0 .703.315.703.704v2.46a.703.703 0 0 1-.703.703z"/><path fill="#FCE575" d="M5.426 36.969V2.516c0-.971.787-1.758 1.758-1.758H2.262C1.29.758.504 1.545.504 2.516v34.453c0 .97.787 1.758 1.758 1.758h4.922c-.971 0-1.758-.787-1.758-1.758z"/><path fill="#F87064" d="M15.973 6.12H3.009a.703.703 0 0 1 0-1.407h12.964a.703.703 0 0 1 0 1.406zM18.741 13.15H3.01a.703.703 0 0 1 0-1.406H18.74a.703.703 0 0 1 0 1.406zM26.564 16.666H3.009a.703.703 0 0 1 0-1.406h23.555a.703.703 0 0 1 0 1.406zM26.564 20.182H3.009a.703.703 0 0 1 0-1.407h23.555a.703.703 0 0 1 0 1.407zM26.564 23.697H3.009a.703.703 0 0 1 0-1.406h23.555a.703.703 0 0 1 0 1.406z"/><path fill="#F87064" d="M3.009 22.291a.703.703 0 0 0 0 1.406h2.417v-1.406H3.009zM3.009 18.775a.703.703 0 0 0 0 1.407h2.417v-1.407H3.009zM3.009 15.26a.703.703 0 0 0 0 1.406h2.417V15.26H3.009zM3.009 11.744a.703.703 0 0 0 0 1.406h2.417v-1.406H3.009zM3.009 4.713a.703.703 0 0 0 0 1.406h2.417V4.713H3.009z"/><path fill="#FCE575" d="M7.855 37.935a1.582 1.582 0 1 0 0-3.164 1.582 1.582 0 0 0 0 3.164zM30.738 38.753a.527.527 0 0 1-.527-.527V24.573a.527.527 0 0 1 1.055 0v13.653a.527.527 0 0 1-.528.527z"/></svg>
